resources/icons/20px/css-style.svg

<svg width="20" height="20" viewBox="0 0 20 20" fill="none" xmlns="http://www.w3.org/2000/svg">
    <path fill-rule="evenodd" clip-rule="evenodd"
        d="M3 1C3 0.447716 3.44772 0 4 0C7 0 10 -1.49375e-05 13 4.39584e-06L19 6C19 10.3333 19 14.6667 19 19C19 19.5523 18.5523 20 18 20H14.2923C14.6929 19.5608 15 18.9577 15 18.25C15 18.164 14.9957 18.0807 14.9875 18H17V7C14.6667 7 14.3333 7 12 7V2H5V13.7205C4.98623 13.732 4.97258 13.7436 4.95905 13.7553C4.79559 13.8964 4.63944 14.063 4.50237 14.2518C4.35622 14.031 4.17576 13.8265 3.95592 13.647C3.65913 13.4046 3.33345 13.2428 3 13.1416V1Z"
        fill="#5F6B7C" />
    <path
        d="M2 14C1.48244 14 1.01782 14.1579 0.659602 14.4634C0.287387 14.7808 0.0385974 15.2614 0 15.75V18.25C0 18.7417 0.259641 19.1831 0.612575 19.4878C0.97057 19.7969 1.4603 20 2 20C3.01534 20 4 19.298 4 18.25C4 17.9739 3.77614 17.75 3.5 17.75C3.22386 17.75 3 17.9739 3 18.25C3 18.5827 2.64151 19 2 19C1.71128 19 1.451 18.8906 1.2661 18.7309C1.07615 18.5669 1 18.3833 1 18.25V15.75C1.0474 15.4965 1.15996 15.3509 1.30847 15.2243C1.46335 15.0922 1.68913 15 2 15C2.33396 15 2.55033 15.0813 2.69086 15.1961C2.82898 15.3089 2.9506 15.5002 3.00702 15.8335C3.05311 16.1057 3.3112 16.2891 3.58347 16.243C3.85574 16.1969 4.03908 15.9388 3.99298 15.6665C3.90665 15.1566 3.69248 14.723 3.32339 14.4216C2.95672 14.1221 2.49447 14 2 14Z"
        fill="#5F6B7C" />
    <path
        d="M5.61258 14.5122C5.97057 14.2031 6.4603 14 7 14C8.01534 14 9 14.702 9 15.75C9 16.0261 8.77614 16.25 8.5 16.25C8.22386 16.25 8 16.0261 8 15.75C8 15.4173 7.64151 15 7 15C6.71128 15 6.451 15.1094 6.26611 15.2691C6.07615 15.4331 6 15.6167 6 15.75C6 15.8712 6.04891 15.9788 6.24988 16.1155C6.4711 16.2659 6.78323 16.3855 7.17478 16.5315L7.20502 16.5428C7.55764 16.6743 7.98065 16.832 8.31238 17.0576C8.67391 17.3034 9 17.6809 9 18.25C9 18.7417 8.74036 19.1831 8.38743 19.4878C8.02943 19.7969 7.5397 20 7 20C5.98466 20 5 19.298 5 18.25C5 17.9739 5.22386 17.75 5.5 17.75C5.77614 17.75 6 17.9739 6 18.25C6 18.5827 6.35849 19 7 19C7.28872 19 7.549 18.8906 7.73389 18.7309C7.92385 18.5669 8 18.3833 8 18.25C8 18.1288 7.95109 18.0212 7.75012 17.8845C7.4624 17.6889 7.11836 17.5778 6.79498 17.4572C6.44237 17.3257 6.01936 17.168 5.68762 16.9424C5.32609 16.6966 5 16.3191 5 15.75C5 15.2583 5.25964 14.8169 5.61258 14.5122Z"
        fill="#5F6B7C" />
    <path
        d="M12 14C11.4603 14 10.9706 14.2031 10.6126 14.5122C10.2596 14.8169 10 15.2583 10 15.75C10 16.3191 10.3261 16.6966 10.6876 16.9424C11.0194 17.168 11.4424 17.3257 11.795 17.4572C12.1184 17.5778 12.4624 17.6889 12.7501 17.8845C12.9511 18.0212 13 18.1288 13 18.25C13 18.3833 12.9239 18.5669 12.7339 18.7309C12.549 18.8906 12.2887 19 12 19C11.3585 19 11 18.5827 11 18.25C11 17.9739 10.7761 17.75 10.5 17.75C10.2239 17.75 10 17.9739 10 18.25C10 19.298 10.9847 20 12 20C12.5397 20 13.0294 19.7969 13.3874 19.4878C13.7404 19.1831 14 18.7417 14 18.25C14 17.6809 13.6739 17.3034 13.3124 17.0576C12.9806 16.832 12.5576 16.6743 12.205 16.5428L12.1748 16.5315C11.7832 16.3855 11.4711 16.2659 11.2499 16.1155C11.0489 15.9788 11 15.8712 11 15.75C11 15.6167 11.0761 15.4331 11.2661 15.2691C11.451 15.1094 11.7113 15 12 15C12.6415 15 13 15.4173 13 15.75C13 16.0261 13.2239 16.25 13.5 16.25C13.7761 16.25 14 16.0261 14 15.75C14 14.702 13.0153 14 12 14Z"
        fill="#5F6B7C" />
</svg>

<svg xmlns="http://www.w3.org/2000/svg" viewBox="0 0 20 20">
  <path d="M3 1a1 1 0 0 1 1-1h9l6 6v13a1 1 0 0 1-1 1h-3.708c.4-.44.708-1.042.708-1.75q0-.13-.012-.25H17V7h-5V2H5v11.72l-.04.035c-.164.141-.32.308-.458.497a2.7 2.7 0 0 0-.546-.605A2.8 2.8 0 0 0 3 13.142zM2 14c-.518 0-.982.158-1.34.463A1.93 1.93 0 0 0 0 15.75v2.5c0 .492.26.933.613 1.238C.97 19.797 1.46 20 2 20c1.015 0 2-.702 2-1.75a.5.5 0 0 0-1 0c0 .333-.358.75-1 .75a1.13 1.13 0 0 1-.734-.27c-.19-.163-.266-.347-.266-.48v-2.5c.047-.254.16-.4.308-.526C1.463 15.092 1.69 15 2 15c.334 0 .55.081.69.196.139.113.26.304.317.638a.5.5 0 0 0 .986-.168c-.086-.51-.3-.943-.67-1.244C2.957 14.122 2.494 14 2 14"/>
  <path d="M5.613 14.512A2.13 2.13 0 0 1 7 14c1.015 0 2 .702 2 1.75a.5.5 0 0 1-1 0c0-.333-.358-.75-1-.75-.289 0-.549.11-.734.27-.19.163-.266.347-.266.48 0 .121.049.229.25.366.221.15.533.27.925.416l.03.01c.353.132.776.29 1.107.516.362.245.688.623.688 1.192 0 .492-.26.933-.613 1.238A2.13 2.13 0 0 1 7 20c-1.015 0-2-.702-2-1.75a.5.5 0 0 1 1 0c0 .333.358.75 1 .75.289 0 .549-.11.734-.27.19-.163.266-.347.266-.48 0-.121-.049-.229-.25-.366-.288-.195-.632-.306-.955-.427-.353-.131-.776-.289-1.107-.515C5.326 16.697 5 16.32 5 15.75c0-.492.26-.933.613-1.238M12 14c-.54 0-1.03.203-1.387.512-.353.305-.613.746-.613 1.238 0 .57.326.947.688 1.192.331.226.754.384 1.107.515.323.12.667.232.955.427.201.137.25.245.25.366 0 .133-.076.317-.266.48A1.13 1.13 0 0 1 12 19c-.642 0-1-.417-1-.75a.5.5 0 0 0-1 0c0 1.048.985 1.75 2 1.75.54 0 1.03-.203 1.387-.512.353-.305.613-.746.613-1.238 0-.57-.326-.947-.688-1.192-.331-.226-.754-.384-1.107-.515l-.03-.011c-.392-.146-.704-.266-.925-.416-.201-.137-.25-.245-.25-.366 0-.133.076-.317.266-.48.185-.16.445-.27.734-.27.642 0 1 .417 1 .75a.5.5 0 0 0 1 0c0-1.048-.985-1.75-2-1.75"/>
</svg>
